X:33
T:Father O'Flynn
M:6/8
Q:1/8=300
K:D
%%MIDI channel 1
%%MIDI program 72
%%MIDI transpose 8
%%MIDI grace 1/8
%%MIDI ratio 3 1
A|dAF DFA|ded cBA|dcd efg|fdf ecA|dAF DFA|ded cBA|dcd efg|fdd d2::
g|fdf fga|ece efg|dcd Bcd|cAA A2c|BGB Bcd|AFA ABc|dcd efg|fdd d2:|

